images/subvisual.svg

<?xml version="1.0" encoding="UTF-8"?>
<svg width="195px" height="39px" viewBox="0 0 195 39" version="1.1" xmlns="http://www.w3.org/2000/svg" xmlns:xlink="http://www.w3.org/1999/xlink">
    <!-- Generator: Sketch 42 (36781) - http://www.bohemiancoding.com/sketch -->
    <title>logo-subvisual</title>
    <desc>Created with Sketch.</desc>
    <defs>
        <path d="M9.69478575,3.29225325 L7.766031,4.41987975 C7.4054565,3.8023635 7.061886,3.3996495 6.73532925,3.2117085 C6.39515175,2.99692575 5.95634325,2.8895295 5.4188745,2.8895295 C4.75894575,2.8895295 4.2112785,3.07410675 3.775863,3.443271 C3.3404475,3.80572725 3.12273975,4.26214425 3.12273975,4.81253175 C3.12273975,5.570994 3.6942165,6.18178275 4.8371895,6.6449175 L6.40876275,7.27920375 C7.687797,7.78932375 8.623251,8.41186125 9.21514425,9.146826 C9.80704725,9.8818005 10.102989,10.7828857 10.102989,11.8501012 C10.102989,13.279773 9.6199545,14.461083 8.65387575,15.3940605 C7.68098175,16.333746 6.47340525,16.8035887 5.03108775,16.8035887 C3.6636015,16.8035887 2.534259,16.4042287 1.6430115,15.6054892 C0.765375,14.8067497 0.21770775,13.6824967 0,12.2326912 L2.4083865,11.7091455 C2.51724525,12.6219892 2.707731,13.2529215 2.979873,13.6019422 C3.469713,14.2731517 4.1840565,14.6087467 5.12293275,14.6087467 C5.86449825,14.6087467 6.48019125,14.3637585 6.970041,13.873782 C7.459881,13.3838055 7.704801,12.762945 7.704801,12.0111907 C7.704801,11.7091455 7.66228125,11.4322845 7.57724175,11.1805785 C7.49220225,10.9288725 7.359534,10.69731 7.17924675,10.4858812 C6.99894975,10.2744525 6.76594425,10.0764495 6.480201,9.8918625 C6.19445775,9.70728525 5.85429,9.531093 5.45969775,9.3632955 L3.93914625,8.73907125 C1.78246575,7.83965325 0.704145,6.52410525 0.704145,4.792398 C0.704145,3.62449425 1.1565645,2.647905 2.06141325,1.86259125 C2.96627175,1.0705695 4.0922115,0.6745635 5.43928125,0.6745635 C7.255794,0.6745635 8.67427275,1.54712025 9.69478575,3.29225325 Z M19.623357,0.976599 L19.623357,10.3398945 C19.623357,11.6755957 19.8444675,12.652185 20.2866885,13.2697012 C20.9466173,14.1624015 21.8752658,14.6087467 23.0726633,14.6087467 C24.2768663,14.6087467 25.2089078,14.1624015 25.8688365,13.2697012 C26.3110575,12.6723285 26.532168,11.6957295 26.532168,10.3398945 L26.532168,0.976599 L28.9099395,0.976599 L28.9099395,10.9842525 C28.9099395,12.621999 28.392897,13.9710967 27.358773,15.0316042 C26.1953933,16.2129337 24.7667063,16.8035887 23.0726633,16.8035887 C21.3786203,16.8035887 19.9533263,16.2129337 18.796752,15.0316042 C17.7626378,13.9710967 17.2455855,12.621999 17.2455855,10.9842525 L17.2455855,0.976599 L19.623357,0.976599 Z M36.9607875,16.5216772 L36.9607875,0.976599 L39.3283605,0.976599 C40.3828815,0.976599 41.2230878,1.05714375 41.8489988,1.21823325 C42.4817153,1.37932275 43.0157715,1.6511625 43.4511968,2.03374275 C43.893408,2.4297585 44.243784,2.923089 44.502315,3.51375375 C44.7676418,4.1111265 44.90031,4.71520725 44.90031,5.32600575 C44.90031,6.4402065 44.4682973,7.38323625 43.6042718,8.15512425 C44.441085,8.43703575 45.101004,8.93036625 45.5840483,9.6351255 C46.0738883,10.3331865 46.3188083,11.1453322 46.3188083,12.0716017 C46.3188083,13.286481 45.8833928,14.3134192 45.0125618,15.1524262 C44.488704,15.6692542 43.9002135,16.0283467 43.2470903,16.2297037 C42.532737,16.4243527 41.6381063,16.5216772 40.5631688,16.5216772 L36.9607875,16.5216772 Z M39.338559,7.651722 L40.0835273,7.651722 C40.9679693,7.651722 41.6159835,7.45875 42.0275895,7.072806 C42.4391955,6.686862 42.6449985,6.1180275 42.6449985,5.36627325 C42.6449985,4.6346625 42.4340963,4.079244 42.012282,3.700008 C41.5904678,3.32078175 40.9781775,3.13116375 40.1753723,3.13116375 L39.338559,3.13116375 L39.338559,7.651722 Z M39.338559,14.3167732 L40.8080888,14.3167732 C41.8830263,14.3167732 42.672201,14.1087082 43.175652,13.6925587 C43.706325,13.2428497 43.9716518,12.6723285 43.9716518,11.9809852 C43.9716518,11.3097757 43.7165235,10.7459722 43.206267,10.2895552 C42.7096215,9.83984625 41.8217963,9.61499175 40.5427523,9.61499175 L39.338559,9.61499175 L39.338559,14.3167732 Z M53.7879225,0.976599 L58.14549,11.7494227 L62.5642875,0.976599 L65.1665625,0.976599 L58.0944975,17.6895712 L51.1856475,0.976599 L53.7879225,0.976599 Z M73.7787375,0.976599 L73.7787375,16.5216772 L71.4009075,16.5216772 L71.4009075,0.976599 L73.7787375,0.976599 Z M90.74871,3.29225325 L88.819965,4.41987975 C88.45941,3.8023635 88.11582,3.3996495 87.7892925,3.2117085 C87.449115,2.99692575 87.0102675,2.8895295 86.4728475,2.8895295 C85.81287,2.8895295 85.2652125,3.07410675 84.829875,3.443271 C84.39444,3.80572725 84.1767225,4.26214425 84.1767225,4.81253175 C84.1767225,5.570994 84.74817,6.18178275 85.8911625,6.6449175 L87.462765,7.27920375 C88.74177,7.78932375 89.677185,8.41186125 90.2691075,9.146826 C90.86103,9.8818005 91.1569425,10.7828857 91.1569425,11.8501012 C91.1569425,13.279773 90.6739275,14.461083 89.7078,15.3940605 C88.734945,16.333746 87.5274075,16.8035887 86.08509,16.8035887 C84.717555,16.8035887 83.5882125,16.4042287 82.696965,15.6054892 C81.8193675,14.8067497 81.27171,13.6824967 81.0539925,12.2326912 L83.46234,11.7091455 C83.5712475,12.6219892 83.761665,13.2529215 84.033885,13.6019422 C84.523725,14.2731517 85.23801,14.6087467 86.176935,14.6087467 C86.9184225,14.6087467 87.534135,14.3637585 88.023975,13.873782 C88.513815,13.3838055 88.758735,12.762945 88.758735,12.0111907 C88.758735,11.7091455 88.716225,11.4322845 88.631205,11.1805785 C88.546185,10.9288725 88.4134875,10.69731 88.23321,10.4858812 C88.0529325,10.2744525 87.8199075,10.0764495 87.534135,9.8918625 C87.24846,9.70728525 86.9082825,9.531093 86.5137,9.3632955 L84.99309,8.73907125 C82.8364875,7.83965325 81.7581375,6.52410525 81.7581375,4.792398 C81.7581375,3.62449425 82.2105375,2.647905 83.115435,1.86259125 C84.020235,1.0705695 85.146165,0.6745635 86.493225,0.6745635 C88.3097475,0.6745635 89.728275,1.54712025 90.74871,3.29225325 Z M100.67733,0.976599 L100.67733,10.3398945 C100.67733,11.6755957 100.89846,12.652185 101.340623,13.2697012 C102.0006,14.1624015 102.92919,14.6087467 104.126588,14.6087467 C105.33081,14.6087467 106.26291,14.1624015 106.92279,13.2697012 C107.36505,12.6723285 107.58618,11.6957295 107.58618,10.3398945 L107.58618,0.976599 L109.963913,0.976599 L109.963913,10.9842525 C109.963913,12.621999 109.44687,13.9710967 108.412785,15.0316042 C107.249415,16.2129337 105.82065,16.8035887 104.126588,16.8035887 C102.432623,16.8035887 101.00727,16.2129337 99.850725,15.0316042 C98.81664,13.9710967 98.2995975,12.621999 98.2995975,10.9842525 L98.2995975,0.976599 L100.67733,0.976599 Z M126.597217,12.7461555 L119.85168,12.7461555 L118.096387,16.5216772 L115.534965,16.5216772 L123.331552,0 L130.852702,16.5216772 L128.250427,16.5216772 L126.597217,12.7461555 Z M125.627678,10.5412515 L123.290798,5.255523 L120.841598,10.5412515 L125.627678,10.5412515 Z M139.475018,0.976599 L139.475018,14.3167732 L144.10812,14.3167732 L144.10812,16.5216772 L137.097285,16.5216772 L137.097285,0.976599 L139.475018,0.976599 Z" id="path-1"></path>
        <path d="M0.0092901237,7.3837335 L13.0618508,0.02729025 L13.0618508,0.026052 L26.017095,7.4018685 L26.017095,15.083991 L13.0624553,7.3884525 L13.0624553,7.38896925 L6.79062345,11.077482 L9.11552948,9.705345 L0.0092901237,7.3837335 Z M0.00706361273,7.38499125 L0,7.38896925 L0,15.0710918 L0.00706361273,15.0669383 L0.00706361273,7.38499125 Z M17.296968,29.0566965 L13.151736,31.5826729 L13.151736,31.6042165 L0.0939745365,23.9138933 L0.0939745365,31.6069845 L13.151736,38.9768756 L13.151736,38.986537 L26.1230873,31.3558616 L17.296968,29.0566965 Z" id="path-3"></path>
        <polygon id="path-5" points="26.1249203 24.5138576 0 8.240739 0 0.55343925 26.1249203 16.8265598"></polygon>
    </defs>
    <g id="1st-Version" stroke="none" stroke-width="1" fill="none" fill-rule="evenodd">
        <g id="1st-version-desktop" transform="translate(-229.000000, -2171.000000)">
            <g id="logo-subvisual" transform="translate(229.000000, 2171.000000)">
                <g id="Group-3" transform="translate(50.700000, 10.725000)">
                    <mask id="mask-2" fill="white">
                        <use xlink:href="#path-1"></use>
                    </mask>
                    <g id="Clip-2"></g>
                    <polygon id="Fill-1" fill="#FFFFFF" mask="url(#mask-2)" points="-4.875 -4.875 148.98312 -4.875 148.98312 22.5645752 -4.875 22.5645752"></polygon>
                </g>
                <g id="Group-6">
                    <mask id="mask-4" fill="white">
                        <use xlink:href="#path-3"></use>
                    </mask>
                    <g id="Clip-5"></g>
                    <polygon id="Fill-4" fill="#FFFFFF" mask="url(#mask-4)" points="-4.875 -4.848948 30.9980873 -4.848948 30.9980873 43.8615372 -4.875 43.8615372"></polygon>
                </g>
                <g id="Group-9" transform="translate(0.000000, 6.825000)">
                    <mask id="mask-6" fill="white">
                        <use xlink:href="#path-5"></use>
                    </mask>
                    <g id="Clip-8"></g>
                    <polygon id="Fill-7" fill="#FFFFFF" mask="url(#mask-6)" points="-4.875 -4.32156075 30.9999203 -4.32156075 30.9999203 29.3888576 -4.875 29.3888576"></polygon>
                </g>
            </g>
        </g>
    </g>
</svg>

<svg width="195" height="39" viewBox="0 0 195 39" xmlns="http://www.w3.org/2000/svg" xmlns:xlink="http://www.w3.org/1999/xlink"><title>logo-subvisual</title><defs><path d="M9.695 3.292L7.766 4.42c-.36-.618-.704-1.02-1.03-1.208-.34-.215-.78-.322-1.317-.322-.66 0-1.208.184-1.643.553-.436.363-.653.82-.653 1.37 0 .758.571 1.369 1.714 1.832l1.572.634c1.279.51 2.214 1.133 2.806 1.868.592.735.888 1.636.888 2.703 0 1.43-.483 2.611-1.45 3.544-.972.94-2.18 1.41-3.622 1.41-1.367 0-2.497-.4-3.388-1.199C.765 14.807.218 13.682 0 12.233l2.408-.524c.11.913.3 1.544.572 1.893.49.671 1.204 1.007 2.143 1.007.741 0 1.357-.245 1.847-.735s.735-1.111.735-1.863c0-.302-.043-.579-.128-.83a2.1 2.1 0 0 0-.398-.695 3.17 3.17 0 0 0-.699-.594 6.767 6.767 0 0 0-1.02-.529L3.94 8.74C1.781 7.84.703 6.524.703 4.792c0-1.168.453-2.144 1.357-2.93C2.966 1.072 4.092.676 5.44.676c1.817 0 3.235.872 4.256 2.617zM19.623.977v9.363c0 1.336.221 2.312.664 2.93.66.892 1.588 1.339 2.786 1.339 1.204 0 2.136-.447 2.796-1.34.442-.597.663-1.573.663-2.93V.978h2.378v10.007c0 1.638-.517 2.987-1.551 4.048-1.164 1.18-2.592 1.772-4.286 1.772-1.694 0-3.12-.591-4.276-1.772-1.034-1.06-1.551-2.41-1.551-4.048V.977h2.377zm17.338 15.545V.977h2.367c1.055 0 1.895.08 2.521.241.633.161 1.167.433 1.602.816.442.396.793.89 1.051 1.48.266.597.398 1.201.398 1.812 0 1.114-.432 2.057-1.296 2.83a3.803 3.803 0 0 1 1.98 1.48c.49.697.735 1.51.735 2.436 0 1.214-.436 2.241-1.306 3.08a4.297 4.297 0 0 1-1.766 1.078c-.714.194-1.609.292-2.684.292h-3.602zm2.378-8.87h.745c.884 0 1.532-.193 1.944-.58.411-.385.617-.954.617-1.706 0-.731-.21-1.287-.633-1.666-.422-.38-1.034-.569-1.837-.569h-.836v4.52zm0 6.665h1.47c1.074 0 1.863-.208 2.367-.624.53-.45.796-1.02.796-1.712 0-.671-.255-1.235-.766-1.691-.496-.45-1.384-.675-2.663-.675h-1.204v4.702zM53.788.977l4.357 10.772L62.565.977h2.602L58.094 17.69 51.186.977h2.602zm19.99 0v15.545h-2.377V.977h2.378zm16.97 2.315L88.82 4.42c-.36-.618-.704-1.02-1.03-1.208-.34-.215-.78-.322-1.317-.322-.66 0-1.208.184-1.643.553-.436.363-.653.82-.653 1.37 0 .758.571 1.369 1.714 1.832l1.572.634c1.279.51 2.214 1.133 2.806 1.868.592.735.888 1.636.888 2.703 0 1.43-.483 2.611-1.45 3.544-.972.94-2.18 1.41-3.622 1.41-1.367 0-2.497-.4-3.388-1.199-.878-.798-1.425-1.923-1.643-3.372l2.408-.524c.11.913.3 1.544.572 1.893.49.671 1.204 1.007 2.143 1.007.741 0 1.357-.245 1.847-.735s.735-1.111.735-1.863c0-.302-.043-.579-.128-.83a2.1 2.1 0 0 0-.398-.695 3.169 3.169 0 0 0-.699-.594 6.763 6.763 0 0 0-1.02-.529l-1.52-.624c-2.158-.9-3.236-2.215-3.236-3.947 0-1.168.453-2.144 1.357-2.93.905-.791 2.031-1.187 3.378-1.187 1.817 0 3.235.872 4.256 2.617zm9.93-2.315v9.363c0 1.336.22 2.312.663 2.93.66.892 1.588 1.339 2.786 1.339 1.204 0 2.136-.447 2.796-1.34.442-.597.663-1.573.663-2.93V.978h2.378v10.007c0 1.638-.517 2.987-1.551 4.048-1.164 1.18-2.592 1.772-4.286 1.772-1.694 0-3.12-.591-4.276-1.772-1.034-1.06-1.551-2.41-1.551-4.048V.977h2.377zm25.92 11.77h-6.746l-1.756 3.775h-2.561L123.332 0l7.52 16.522h-2.602l-1.653-3.776zm-.97-2.206l-2.337-5.285-2.45 5.285h4.787zM139.475.977v13.34h4.633v2.205h-7.01V.977h2.377z" id="a"/><path d="M.01 7.384L13.061.027l12.955 7.375v7.682L13.062 7.388v.001l-6.271 3.688 2.325-1.372L.009 7.384zm-.003.001L0 7.389v7.682l.007-.004V7.385zm17.29 21.672l-4.145 2.526v.021L.094 23.914v7.693l13.058 7.37v.01l12.971-7.631-8.826-2.3z" id="c"/><path id="e" d="M26.125 24.514L0 8.24V.553l26.125 16.274z"/></defs><g fill="none" fill-rule="evenodd"><g transform="translate(50.7 10.725)"><mask id="b" fill="#fff"><use xlink:href="#a"/></mask><path fill="#FFF" mask="url(#b)" d="M-4.875-4.875h153.858v27.44H-4.875z"/></g><g><mask id="d" fill="#fff"><use xlink:href="#c"/></mask><path fill="#FFF" mask="url(#d)" d="M-4.875-4.849h35.873v48.71H-4.875z"/></g><g transform="translate(0 6.825)"><mask id="f" fill="#fff"><use xlink:href="#e"/></mask><path fill="#FFF" mask="url(#f)" d="M-4.875-4.322H31v33.71H-4.875z"/></g></g></svg>
